X:82
T:Brounswick Waltze. LIT.082, The
M:6/8
Q:3/8=60
L:1/8
B:Wm. Litten MS, 1802
Z:Village Music Project 2017 Anne Wride
K:G
G/A/ | BBB/c/ d2 g/e/ | ddd/c/ B2 G/A/ | BBB/c/ d2 g | g/f/e/d/e/f/ g2 :|
|: d | c'c'a bb>g | ff/a/g/b/ aad | c'c'a b/b/g>g | g/f/e/d/e/f/ g2 :|
|: B/c/ | ddg/e/ ddB/d/ | ccA/c/ B/G/A/B/B/c/ | dd g/e/ ddg | g/f/e/d/e/f/ g3 :|

